widget/bluetooth/icons/bluetooth-connected.svg

<svg xmlns="http://www.w3.org/2000/svg" width="240" height="240">
    <path d="m70 120-20-20-20 20 20 20Zm107.05-42.95L120 20h-10v75.85L64.15 50 50 64.15 105.85 120 50 175.85 64.15 190 110 144.15V220h10l57.05-57.05-42.9-42.95ZM130 58.3l18.8 18.8L130 95.85Zm18.8 104.65L130 181.7v-37.6ZM190 100l-20 20 20 20 20-20z" style="fill:#fff;fill-opacity:1;stroke-width:5"/>
</svg>

<?xml version="1.0" encoding="UTF-8" standalone="no"?>
<svg
   xmlns:dc="http://purl.org/dc/elements/1.1/"
   xmlns:cc="http://creativecommons.org/ns#"
   xmlns:rdf="http://www.w3.org/1999/02/22-rdf-syntax-ns#"
   xmlns:svg="http://www.w3.org/2000/svg"
   xmlns="http://www.w3.org/2000/svg"
   xmlns:sodipodi="http://sodipodi.sourceforge.net/DTD/sodipodi-0.dtd"
   xmlns:inkscape="http://www.inkscape.org/namespaces/inkscape"
   width="240"
   height="240"
   viewBox="0 0 240 240"
   version="1.1"
   id="svg4"
   sodipodi:docname="bluetooth-connected.svg"
   inkscape:version="0.92.4 5da689c313, 2019-01-14">
  <metadata
     id="metadata10">
    <rdf:RDF>
      <cc:Work
         rdf:about="">
        <dc:format>image/svg+xml</dc:format>
        <dc:type
           rdf:resource="http://purl.org/dc/dcmitype/StillImage" />
        <dc:title></dc:title>
      </cc:Work>
    </rdf:RDF>
  </metadata>
  <defs
     id="defs8" />
  <sodipodi:namedview
     pagecolor="#ffffff"
     bordercolor="#666666"
     borderopacity="1"
     objecttolerance="10"
     gridtolerance="10"
     guidetolerance="10"
     inkscape:pageopacity="0"
     inkscape:pageshadow="2"
     inkscape:window-width="1321"
     inkscape:window-height="740"
     id="namedview6"
     showgrid="false"
     inkscape:pagecheckerboard="true"
     inkscape:zoom="0.86915209"
     inkscape:cx="-203.9165"
     inkscape:cy="77.465699"
     inkscape:window-x="45"
     inkscape:window-y="28"
     inkscape:window-maximized="0"
     inkscape:current-layer="svg4" />
  <path
     d="M 70,120 50,100 30,120 50,140 Z M 177.05,77.05 120,20 H 110 V 95.85 L 64.15,50 50,64.15 105.85,120 50,175.85 64.15,190 110,144.15 V 220 h 10 L 177.05,162.95 134.15,120 Z M 130,58.3 148.8,77.1 130,95.85 Z M 148.8,162.95 130,181.7 V 144.1 Z M 190,100 l -20,20 20,20 20,-20 z"
     id="path2"
     style="fill:#ffffff;fill-opacity:1;stroke-width:5"
     inkscape:connector-curvature="0" />
</svg>
